src/images/icon-adv-ribbon.svg

<svg width="72" height="86" viewBox="0 0 72 86" fill="none" xmlns="http://www.w3.org/2000/svg">
<path d="M71.7586 71.5632L59.3754 49.4833C60.6305 48.8888 61.3835 47.5301 61.2998 46.0015L60.3795 38.1886L65.6507 32.5837C66.822 31.3948 66.9057 29.3567 65.7343 27.913L60.4631 22.1382L61.5508 14.2404C61.7182 12.542 60.5468 10.8435 58.8734 10.5039L51.2594 8.97525L47.578 2.09653C46.8249 0.482997 44.9842 -0.196383 43.3108 0.482997H43.2271L36.1988 3.79498L29.3379 0.398074C28.5849 -0.0265383 27.6645 -0.111461 26.8278 0.143307C25.9911 0.398074 25.3217 0.992532 24.9034 1.75684L21.1382 8.63556L13.5243 9.99432C11.7672 10.334 10.5958 11.9475 10.7632 13.8158L11.6835 21.6287L6.41232 27.2336C5.24094 28.4225 5.15727 30.4607 6.32865 31.9043L11.5999 37.6791L10.5122 45.5769C10.3448 47.1055 11.2652 48.5492 12.6876 49.1436L0.220743 71.5632C-0.113937 72.0727 -0.0302669 72.7521 0.220743 73.2616C0.555423 73.7712 1.05744 74.1108 1.64313 74.1108H15.0303L21.1382 84.896C21.4729 85.4055 21.9749 85.7452 22.5606 85.7452C23.1463 85.7452 23.732 85.4055 23.983 84.896L35.9478 64.1749L47.9126 85.1508C48.2473 85.6603 48.7493 86 49.335 86C49.9207 86 50.5064 85.6603 50.7574 85.1508L56.8653 74.1108H70.2525C70.8382 74.1108 71.4239 73.7712 71.6749 73.2616C72.0933 72.7521 72.0933 72.0727 71.7586 71.5632ZM22.6443 80.6499L17.4568 71.5632C17.1221 71.0536 16.6201 70.7139 16.0344 70.7139H4.48791L16.0344 49.9928L20.8036 50.8421L24.485 57.7208C25.2381 59.3343 27.0788 60.0137 28.7522 59.3343H28.8359L32.2663 57.7208L33.9397 60.6931L22.6443 80.6499ZM27.4972 56.2771C27.4135 56.2771 27.4135 56.2771 27.4135 56.2771L23.732 49.2285C23.23 48.3793 22.3933 47.6999 21.3892 47.615L13.6916 46.1713L14.7793 38.3585C14.9467 37.3394 14.612 36.2354 13.9426 35.556L8.75508 29.7813L14.0263 24.1764C14.7793 23.4121 15.114 22.393 14.9467 21.3739L14.0263 13.646C14.0263 13.646 14.0263 13.5611 14.11 13.4761L21.7239 12.1174C22.6443 11.9475 23.5647 11.3531 24.0667 10.4189L27.8318 3.54021L34.6928 6.93711C35.6131 7.44665 36.7845 7.44665 37.7049 6.93711L44.6495 3.71005C44.7332 3.71005 44.7332 3.71005 44.7332 3.71005L48.4147 10.7586C48.9167 11.6079 49.7534 12.2872 50.6737 12.3722L58.2877 13.9008L57.2 21.7136C57.0327 22.7327 57.3673 23.8367 58.0367 24.5161L63.3079 30.2908L57.953 35.8957C57.2 36.66 56.8653 37.6791 57.0327 38.6981L57.953 46.511L50.4227 47.7849C49.5024 47.9547 48.582 48.5492 48.08 49.4833L44.3148 56.362L37.4539 52.9651C36.5335 52.4556 35.3621 52.4556 34.4418 52.9651L27.4972 56.2771ZM55.9449 70.7139C55.3593 70.7139 54.7736 71.0536 54.5226 71.5632L49.335 80.9046L37.5376 60.1835C37.4539 59.9288 37.3702 59.7589 37.2029 59.5891L35.3621 56.2771L35.9478 56.0223L42.8088 59.4192C43.3108 59.674 43.8128 59.7589 44.3148 59.7589C45.4862 59.7589 46.6576 59.1645 47.2433 58.0605L51.0084 51.1818L56.0286 50.2476L67.4914 70.7139H55.9449Z" fill="#F4F4F4"/>
<path d="M52.6818 29.9511C52.6818 20.6096 45.1515 12.9666 35.9478 12.9666C26.7441 12.9666 19.2138 20.6096 19.2138 29.9511C19.2138 39.2926 26.7441 46.9356 35.9478 46.9356C45.1515 46.9356 52.6818 39.2926 52.6818 29.9511ZM35.9478 43.5387C28.5849 43.5387 22.5606 37.4243 22.5606 29.9511C22.5606 22.4779 28.5849 16.3635 35.9478 16.3635C43.3108 16.3635 49.335 22.4779 49.335 29.9511C49.335 37.4243 43.3108 43.5387 35.9478 43.5387Z" fill="#F4F4F4"/>
</svg>

<svg xmlns="http://www.w3.org/2000/svg" width="72" height="86" fill="none"><path fill="#F4F4F4" d="M71.76 71.56L59.38 49.48c1.25-.6 2-1.95 1.92-3.48l-.92-7.8 5.27-5.62c1.17-1.2 1.26-3.22.08-4.67l-5.27-5.76 1.1-7.9c.16-1.7-1-3.4-2.7-3.74l-7.6-1.52-3.68-6.88C46.82.48 44.98-.2 43.3.48h-.07l-7.03 3.3L29.34.4c-.76-.43-1.68-.5-2.5-.26-.85.26-1.52.85-1.94 1.62l-3.76 6.88L13.52 10c-1.75.33-2.92 1.95-2.76 3.82l.92 7.8-5.27 5.6c-1.16 1.2-1.24 3.24-.07 4.68l5.27 5.78-1.1 7.9c-.16 1.53.77 2.97 2.2 3.56L.2 71.56c-.33.5-.25 1.2 0 1.7.34.5.84.85 1.42.85h13.4l6.1 10.8c.33.5.83.85 1.42.85.6 0 1.17-.34 1.42-.85l11.97-20.73L47.9 85.15c.35.5.85.85 1.44.85.58 0 1.17-.34 1.42-.85l6.1-11.04h13.4c.58 0 1.16-.33 1.4-.84.43-.5.43-1.2.1-1.7zm-49.12 9.1l-5.18-9.1c-.34-.5-.84-.85-1.43-.85H4.5L16.02 50l4.77.84 3.68 6.88c.76 1.6 2.6 2.3 4.27 1.6h.1l3.42-1.6 1.67 2.97-11.3 19.95zm4.86-24.38c-.1 0-.1 0-.1 0l-3.67-7.05c-.5-.85-1.34-1.53-2.34-1.6l-7.7-1.46 1.08-7.8c.17-1.03-.17-2.13-.84-2.8l-5.18-5.8 5.27-5.6c.75-.76 1.08-1.78.92-2.8l-.92-7.72s0-.1.08-.17l7.62-1.36c.92-.17 1.84-.77 2.35-1.7l3.76-6.88 6.86 3.4c.9.5 2.08.5 3 0l6.95-3.23c.08 0 .08 0 .08 0l3.68 7.06c.52.85 1.35 1.53 2.27 1.6l7.62 1.54-1.1 7.8c-.17 1.03.17 2.14.84 2.82l5.27 5.77-5.35 5.6c-.75.76-1.08 1.78-.92 2.8l.92 7.8-7.53 1.28c-.92.17-1.84.77-2.34 1.7l-3.77 6.88-6.85-3.4c-.92-.5-2.1-.5-3 0L27.5 56.3zM55.94 70.7c-.58 0-1.17.35-1.42.86l-5.2 9.34-11.78-20.72c-.1-.25-.17-.42-.34-.6l-1.84-3.3.6-.26 6.85 3.4c.5.25 1 .34 1.5.34 1.2 0 2.36-.6 2.94-1.7L51 51.18l5.03-.93L67.5 70.7H55.93zM52.68 29.95c0-9.34-7.53-16.98-16.73-16.98S19.2 20.6 19.2 29.95s7.54 17 16.75 17c9.2 0 16.73-7.66 16.73-17zm-16.73 13.6c-7.37 0-13.4-6.13-13.4-13.6s6.03-13.6 13.4-13.6c7.36 0 13.38 6.13 13.38 13.6s-6.02 13.6-13.38 13.6z"/></svg>
